img/icons/info.svg

<svg width="28" height="28" viewBox="0 0 28 28" fill="none" xmlns="http://www.w3.org/2000/svg">
<path d="M14.0002 2.33337C7.56016 2.33337 2.3335 7.56004 2.3335 14C2.3335 20.44 7.56016 25.6667 14.0002 25.6667C20.4402 25.6667 25.6668 20.44 25.6668 14C25.6668 7.56004 20.4402 2.33337 14.0002 2.33337ZM15.1668 19.8334H12.8335V12.8334H15.1668V19.8334ZM15.1668 10.5H12.8335V8.16671H15.1668V10.5Z" fill="white"/>
</svg>

<svg width="28" height="28" fill="none" xmlns="http://www.w3.org/2000/svg"><path d="M14 2.333C7.56 2.333 2.334 7.56 2.334 14c0 6.44 5.226 11.667 11.666 11.667S25.667 20.44 25.667 14C25.667 7.56 20.44 2.333 14 2.333zm1.167 17.5h-2.333v-7h2.333v7zm0-9.333h-2.333V8.167h2.333V10.5z" fill="#fff"/></svg>
